X:7
T:Ballou
Z:Jack Campin - http://www.campin.me.uk
S:Blaikie MS (NLS MS.1578) p2, Blaikie #6
M:C
L:1/8
V:1 midi program 1 74
V:2 midi program 1 46 bass middle = d transpose -24
Q:1/4=80
K:Eb
[V:1] G2FE E2G2|B,GFE C4   |G2FE E2E2|F2G2 B4  :|
[V:2] E2e2 e2e2|e2 fg a2z2 |e2e2 g2e2|d2e2 B4  :|
%
[V:1] G2BG B4  |A2 cA c4   |B2eB efge|cBce B4   |
[V:2] e2e2 d4  |c2 c2 A4   |G2g2 f2e2|agaf g2b2 |
%
[V:1] e2Bc G2B2|FG`FE C2B,2|C2EG ecBG|FGFE E4  |]
[V:2] gega ebgb|de`fg a2g2 |a2ge e2e2|B2B2 e2E2|]
W:Transcription (c) Jack Campin 2009, no mirroring or republication without permission

